X: 15070
T: German, The
R: barndance
M: 4/4
K: Gmajor
G>FG>A B2 B2|c>Bc>d e2 e2|d>Bg>e d>B (3GAB|A>BA>G (3EGE D2|
G2 G>A B2 (3GAB|c2 c>d e2- e>c|d>Gg>e d>BG>B|1 (3ABA G2 G2:|2 A2 G2 G>B||
b>B (3BBB b2 a>g|f>ef>g a2 a2|d>A (3ddd d2 e>f|g>fg>a b>gd>g|
b2 (3bbb b2 (3bag|f>ef>g a2 A2|d2 (3AAA d2 e>f|G2 g2 G2:|2 G2 g2 g>e||

